telier/img/visa.svg

<svg width="34" height="12" viewBox="0 0 34 12" fill="none" xmlns="http://www.w3.org/2000/svg">
<path fill-rule="evenodd" clip-rule="evenodd" d="M8.36493 10.9231H5.46932L3.29797 2.38959C3.19491 1.99705 2.97608 1.65002 2.65419 1.48646C1.85087 1.07543 0.965673 0.748312 0 0.583331V0.254792H4.6646C5.30838 0.254792 5.79121 0.748312 5.87169 1.32148L6.99831 7.47697L9.8925 0.254792H12.7076L8.36493 10.9231ZM14.3171 10.9231H11.5825L13.8343 0.254792H16.569L14.3171 10.9231ZM20.1069 3.21027C20.1874 2.63568 20.6702 2.30714 21.2335 2.30714C22.1187 2.22465 23.083 2.38963 23.8877 2.79924L24.3705 0.502309C23.5658 0.17377 22.6806 0.00878906 21.8773 0.00878906C19.2231 0.00878906 17.2917 1.4865 17.2917 3.53739C17.2917 5.09759 18.6598 5.91681 19.6255 6.41033C20.6702 6.90242 21.0726 7.23096 20.9921 7.72306C20.9921 8.46121 20.1874 8.78975 19.384 8.78975C18.4184 8.78975 17.4527 8.5437 16.5689 8.13267L16.0861 10.431C17.0517 10.8406 18.0965 11.0056 19.0621 11.0056C22.0382 11.0867 23.8877 9.61038 23.8877 7.39452C23.8877 4.60407 20.1069 4.44051 20.1069 3.21027ZM33.4584 10.9231L31.287 0.254792H28.9547C28.4719 0.254792 27.989 0.583331 27.8281 1.07543L23.8073 10.9231H26.6224L27.1843 9.36429H30.6432L30.9651 10.9231H33.4584ZM29.357 3.12786L30.1603 7.14856H27.9085L29.357 3.12786Z" fill="#172B85"/>
</svg>

<svg width="34" height="12" fill="none" xmlns="http://www.w3.org/2000/svg"><path fill-rule="evenodd" clip-rule="evenodd" d="M8.365 10.923H5.469L3.298 2.39c-.103-.393-.322-.74-.644-.904A9.236 9.236 0 000 .583V.255h4.665c.643 0 1.126.493 1.207 1.066l1.126 6.156L9.892.255h2.816L8.365 10.923zm5.952 0h-2.735L13.834.255h2.735l-2.252 10.668zm5.79-7.713c.08-.574.563-.903 1.127-.903a4.966 4.966 0 012.654.492L24.37.502A6.745 6.745 0 0021.878.01c-2.654 0-4.585 1.478-4.585 3.528 0 1.56 1.368 2.38 2.333 2.873 1.045.492 1.448.821 1.367 1.313 0 .738-.805 1.067-1.608 1.067-.966 0-1.931-.246-2.815-.657l-.483 2.298c.966.41 2.01.575 2.976.575 2.976.08 4.826-1.396 4.826-3.611 0-2.79-3.781-2.954-3.781-4.185zm13.351 7.713L31.287.255h-2.332c-.483 0-.966.328-1.127.82l-4.02 9.848h2.814l.562-1.559h3.46l.321 1.56h2.493zm-4.101-7.795l.803 4.02h-2.252l1.449-4.02z" fill="#172B85"/></svg>
